src/components/icons/InvertAnnotation.svg

<?xml version="1.0" encoding="UTF-8"?>
<svg version="1.1" viewBox="0 0 24 24" xmlns="http://www.w3.org/2000/svg"><g fill="none"><path d="M0 0h24v24h-24Z"></path><path stroke="#323232" stroke-linecap="round" stroke-linejoin="round" stroke-width="1.5" d="M15 21h-11c-.552 0-1-.448-1-1v-11c0-.552.448-1 1-1h11c.552 0 1 .448 1 1v11c0 .552-.448 1-1 1Z"></path><path stroke="#323232" stroke-linecap="round" stroke-linejoin="round" stroke-width="1.5" d="M21 5v-1c0-.552-.448-1-1-1h-1"></path><path stroke="#323232" stroke-linecap="round" stroke-linejoin="round" stroke-width="1.5" d="M21 15v1c0 .552-.448 1-1 1h-1"></path><path stroke="#323232" stroke-linecap="round" stroke-linejoin="round" stroke-width="1.5" d="M7 5v-1c0-.552.448-1 1-1h1"></path><path stroke="#323232" stroke-linecap="round" stroke-linejoin="round" stroke-width="1.5" d="M13 3h2"></path><path stroke="#323232" stroke-linecap="round" stroke-linejoin="round" stroke-width="1.5" d="M21 11v-2 0 0Z"></path></g></svg>

<?xml version="1.0" encoding="UTF-8"?>
<svg width="24px" height="24px" viewBox="0 0 24 24" version="1.1" xmlns="http://www.w3.org/2000/svg" xmlns:xlink="http://www.w3.org/1999/xlink">
    <title>Invert</title>
    <g id="Invert" stroke="none" stroke-width="1" fill="none" fill-rule="evenodd">
        <g id="InvertAnnotation">
            <polygon id="Path" points="0 0 24 0 24 24 0 24"></polygon>
            <path d="M15,21 L4,21 C3.448,21 3,20.552 3,20 L3,9 C3,8.448 3.448,8 4,8 L15,8 C15.552,8 16,8.448 16,9 L16,20 C16,20.552 15.552,21 15,21 Z" id="Path" stroke="#BABABA" stroke-width="1.5" stroke-linecap="round" stroke-linejoin="round"></path>
            <path d="M21,5 L21,4 C21,3.448 20.552,3 20,3 L19,3" id="Path" stroke="#BABABA" stroke-width="1.5" stroke-linecap="round" stroke-linejoin="round"></path>
            <path d="M21,15 L21,16 C21,16.552 20.552,17 20,17 L19,17" id="Path" stroke="#BABABA" stroke-width="1.5" stroke-linecap="round" stroke-linejoin="round"></path>
            <path d="M7,5 L7,4 C7,3.448 7.448,3 8,3 L9,3" id="Path" stroke="#BABABA" stroke-width="1.5" stroke-linecap="round" stroke-linejoin="round"></path>
            <line x1="13" y1="3" x2="15" y2="3" id="Path" stroke="#BABABA" stroke-width="1.5" stroke-linecap="round" stroke-linejoin="round"></line>
            <polygon id="Path" stroke="#BABABA" stroke-width="1.5" stroke-linecap="round" stroke-linejoin="round" points="21 11 21 9 21 9 21 9"></polygon>
        </g>
    </g>
</svg>
